projects/js-packages/social-logos/src/svg/behance.svg

<svg enable-background="new 0 0 24 24" viewBox="0 0 24 24" xmlns="http://www.w3.org/2000/svg"><path d="m7.799 5.698c.589 0 1.12.051 1.606.156.482.102.894.273 1.241.507.344.235.612.546.804.938.188.387.281.871.281 1.443 0 .619-.141 1.137-.421 1.551-.284.413-.7.751-1.255 1.014.756.218 1.317.601 1.689 1.146.374.549.557 1.205.557 1.975 0 .623-.12 1.161-.359 1.612-.241.457-.569.828-.973 1.114-.408.288-.876.5-1.399.637-.518.14-1.056.209-1.607.209h-5.963v-12.302zm-.35 4.97c.481 0 .878-.114 1.192-.345.311-.228.463-.603.463-1.119 0-.286-.051-.523-.152-.707-.104-.182-.241-.326-.416-.427-.174-.104-.37-.176-.596-.216-.224-.044-.457-.06-.697-.06h-2.534v2.874zm.151 5.237c.267 0 .521-.024.759-.077.243-.053.457-.137.637-.261.182-.12.332-.283.441-.491.11-.206.163-.474.163-.798 0-.633-.18-1.084-.533-1.357-.356-.27-.83-.404-1.413-.404h-2.945v3.388zm8.562-.041c.367.358.897.538 1.583.538.493 0 .92-.125 1.277-.374.354-.248.571-.514.654-.79h2.155c-.347 1.072-.872 1.838-1.589 2.299-.708.463-1.572.693-2.58.693-.701 0-1.332-.113-1.899-.337-.567-.227-1.041-.544-1.439-.958-.389-.415-.689-.907-.904-1.484-.213-.574-.32-1.21-.32-1.899 0-.666.11-1.288.329-1.863.222-.577.529-1.075.933-1.492.406-.42.885-.751 1.444-.994.558-.241 1.175-.363 1.857-.363.754 0 1.414.145 1.98.44.563.291 1.026.686 1.389 1.181.363.493.622 1.057.783 1.69.16.632.217 1.292.171 1.983h-6.428c-.001.706.237 1.372.604 1.73m2.811-4.68c-.291-.321-.783-.496-1.384-.496-.39 0-.714.066-.973.2-.254.132-.461.297-.621.491-.157.197-.265.405-.328.628-.063.217-.101.413-.111.587h3.98c-.058-.625-.271-1.085-.563-1.41zm-3.916-3.446h4.985v-1.214h-4.985z"/></svg>

<?xml version="1.0" encoding="iso-8859-1"?>
<!-- Generator: Adobe Illustrator 19.2.1, SVG Export Plug-In . SVG Version: 6.00 Build 0)  -->
<svg version="1.1" xmlns="http://www.w3.org/2000/svg" xmlns:xlink="http://www.w3.org/1999/xlink" x="0px" y="0px"
	 viewBox="0 0 24 24" style="enable-background:new 0 0 24 24;" xml:space="preserve">
<g id="behance">
	<path d="M7.799,5.698c0.589,0,1.12,0.051,1.606,0.156c0.482,0.102,0.894,0.273,1.241,0.507c0.344,0.235,0.612,0.546,0.804,0.938
		c0.188,0.387,0.281,0.871,0.281,1.443c0,0.619-0.141,1.137-0.421,1.551c-0.284,0.413-0.7,0.751-1.255,1.014
		c0.756,0.218,1.317,0.601,1.689,1.146c0.374,0.549,0.557,1.205,0.557,1.975c0,0.623-0.12,1.161-0.359,1.612
		c-0.241,0.457-0.569,0.828-0.973,1.114c-0.408,0.288-0.876,0.5-1.399,0.637C9.052,17.931,8.514,18,7.963,18H2V5.698H7.799
		 M7.449,10.668c0.481,0,0.878-0.114,1.192-0.345c0.311-0.228,0.463-0.603,0.463-1.119c0-0.286-0.051-0.523-0.152-0.707
		C8.848,8.315,8.711,8.171,8.536,8.07C8.362,7.966,8.166,7.894,7.94,7.854c-0.224-0.044-0.457-0.06-0.697-0.06H4.709v2.874H7.449z
		 M7.6,15.905c0.267,0,0.521-0.024,0.759-0.077c0.243-0.053,0.457-0.137,0.637-0.261c0.182-0.12,0.332-0.283,0.441-0.491
		C9.547,14.87,9.6,14.602,9.6,14.278c0-0.633-0.18-1.084-0.533-1.357c-0.356-0.27-0.83-0.404-1.413-0.404H4.709v3.388L7.6,15.905z
		 M16.162,15.864c0.367,0.358,0.897,0.538,1.583,0.538c0.493,0,0.92-0.125,1.277-0.374c0.354-0.248,0.571-0.514,0.654-0.79h2.155
		c-0.347,1.072-0.872,1.838-1.589,2.299C19.534,18,18.67,18.23,17.662,18.23c-0.701,0-1.332-0.113-1.899-0.337
		c-0.567-0.227-1.041-0.544-1.439-0.958c-0.389-0.415-0.689-0.907-0.904-1.484c-0.213-0.574-0.32-1.21-0.32-1.899
		c0-0.666,0.11-1.288,0.329-1.863c0.222-0.577,0.529-1.075,0.933-1.492c0.406-0.42,0.885-0.751,1.444-0.994
		c0.558-0.241,1.175-0.363,1.857-0.363c0.754,0,1.414,0.145,1.98,0.44c0.563,0.291,1.026,0.686,1.389,1.181
		c0.363,0.493,0.622,1.057,0.783,1.69c0.16,0.632,0.217,1.292,0.171,1.983h-6.428C15.557,14.84,15.795,15.506,16.162,15.864
		 M18.973,11.184c-0.291-0.321-0.783-0.496-1.384-0.496c-0.39,0-0.714,0.066-0.973,0.2c-0.254,0.132-0.461,0.297-0.621,0.491
		c-0.157,0.197-0.265,0.405-0.328,0.628c-0.063,0.217-0.101,0.413-0.111,0.587h3.98C19.478,11.969,19.265,11.509,18.973,11.184z
		 M15.057,7.738h4.985V6.524h-4.985L15.057,7.738z"/>
</g>
<g id="Layer_1">
</g>
</svg>
